X:141
%%pagewidth 9in
%%vocalfont Baskerville10Pro 15
T:Sir Launcelot du Lake.
M:2/4
L:1/8
K:G
%%score 1 2
V:1 clef-treble
V:2 clef-bass octave=-1
V:1
[B,G]|G>GG>G&B,x B,x|Gc [DB]>[Ec]&C2x2|d>B G[^CA]&Gx3|D3[B,G]|
w:When Ar-thur first in court be-gan, And was ap-prov-ed King, By
V:2
G|G2[FG]2|[EG]2 [DG]>[CG]|[B,G]2 [EG][A,G]|[DF][GB][FA][EG]|
V:1
G>GG>G&B,x B,x|G>G [DG][EA]&Cx3|[DB](A/G/) D[CF]|[B,G]3||
w:force of arms, great vic-t'ries won, And con-quest* home did bring.
V:2
[EG]2[DF]2|[CE]2[B,G][CG]|[DG]2 [DB][DA]|[G,G]3||

